X:69
T: ES LEUCHTET SCHON WIEDER
N: F0168
O: Europa, Mitteleuropa, Deutschland
R: Liebes - Lied, Verzeihung
M: 3/4
L: 1/8
K: C
E,G, | G,2E,G,CD | E2G,2
A,B, | C2D2CA, | G,4
E,G, | G,2C2B,A, | G,2E,G,
CE, | G,A,G,2F,D, | C,4

